X:1
T:Jungfrau, ich denck jetzunder
T:Giovanni Giacomo Gastoldi
T:Source : Tricinia---Johann-Jacob Gastoldi und anderer Autorn---Nürnberg---P.Kauffmann---1607. Editor :  André Vierendeels (13/03/17).
T:Notes : Original clefs : C1, C1, F4 m12 in S 1: first "D" notated as "B" in original print Text Middle German by Valentin Hauszmann
T:Jungfrau, ich denck jetzunder
T:©
T:©
C:Giovanni Giacomo Gastoldi
Z:©
%%score [ 1 2 3 ]
L:1/8
Q:1/4=120
M:4/4
K:C
V:1 treble nm="Soprano 1" snm="S 1"
V:2 treble nm="Soprano 2" snm="S 2"
V:3 bass nm="Bass" snm="B"
V:1
"^1)" z2 B2 d2 B2 | A2 B2 c4 | c4 A2 AA | A2 A2 G4 | ^F4 z2 G2 | E2 ^F2 GABc | d4 z4 | %7
w: Jung- frau, ich|denck jetz- un-|der, wie ihr so|hart von sin-|nen köndt|sein be- schla- * * *|gen|
w: Euch ist be-|wust der schmer-|tzen, den ich so|sehr be- kla-|ge, Ir|schlagts in Wind, _ _ _|_|
 d2 cB A2 G2 | ^F2 G4 F2 |[M:2/4] G4 ::[M:4/4] B2 c2 d4 | d2 d2 e2 e2 | d2 c2 B4 | A2 B2 c4 | %14
w: das- sel- big nimmt mich|wun- * *|der,|ich thu gleich|was ich sol- le,|machs mit euch|wie ich wol-|
w: und wolt es nicht be-|her- * *|zen,|wenn ich traur,|thut ihr la- chen,|solt ich zu|der stund ster-|
 c2 G2 c4 | z2 B2 e4 | z2 f3 f d2 | e4 e2 B2 | c2 d2 e3 d | c2 B2 A2 G2 | EFGE ^F2 G2- | %21
w: le, kein trost,|kein trost,|thut ihr mir|ge- ben ihr|krenckt von tag zu|tag mein jun- ges|le- * * * * *|
w: ben, solt ich,|solt ich|zu der stund|ster- ben, eh|ihr mir hülfft, ihr|lies- sest mir ver-|der- * * * * *|
 G2 ^F2 !fermata!G4 :| %22
w: * * ben.|
w: * * ben,|
V:2
"^2)""^1)" z2 d2 B2 d2 | c2 d2 e4 | e4 c2 cc | c2 c2 B4 | A4 z2 d2 | c2 A2 B4 | B2 AG A2 c2 | %7
w: Jung- frau, ich|denck jetz- un-|der, wie ihr so|hart von sin-|nen köndt|sein be- schlag'n|das- sel- big nimmt mich|
w: Solchs hett ich|nicht ge- glau-|bet, wenn ichs nicht|seh für au-|gen, dasz|ich von euch|wer al- ler hülff be-|
 A2 A2 d2 cB | A2 G2 A4 |[M:2/4] B4 ::[M:4/4] d2 c2 B4 | A2 B2 c2 c2 | B2 c2 d4 | d2 d2 e4 | %14
w: wun- der, das- sel- big|nimmt mich wun-|der,|ich thu gleich|was ich sol- le,|machs mit euch|wie ich wol-|
w: rau- bet, wer al- ler|hülff be- rau-|bet,|nun laszt ihr|michs er- fah- ren,|hett mein treu|Hertz mögn spa-|
 e4 z2 e2 | d4 z2 G2 | c2 A3 A B2 | c4 G4 | z4 z2 c2 | c2 d2 e3 d | c2 B2 A2 G2 | A4 !fermata!B4 :| %22
w: le kein|trost, kein|trost thut ihr mir|ge- ben,|ihr|krenckt von tag zu|tag mein jun- ges|le- ben.|
w: ren, welchs|ich, welchs|ich auff euch ge-|wen- det,|wie|hat mich doch die|Lie- be so ver-|blen- det?|
V:3
"^3)""^1)" z2 G,2 G,2 G,2 | A,2 G,2 C,4 | C,4 F,2 F,F, | F,2 F,2 G,4 | D,4 z2 G,,2 | C,2 D,2 G,,4 | %6
w: Jung- frau ich|denck jetz- un-|der, wie ihr so|hart von sin-|ne köndt|sein be- schlag'n|
 G,2 F,E, D,2 C,2 | D,8- | D,8 |[M:2/4] G,,4 ::[M:4/4] G,2 A,2 G,4 | ^F,2 G,2 C,2 C,2 | %12
w: das- sel- big nimmt mich|wun-||der,|ich thu gleich|was ich sol- le,|
 G,2 A,2 G,4 | ^F,2 G,2 C,4 | C,4 z2 C,2 | G,4 z2 E,2 | A,2 F,3 D, G,2 | C,4 C,2 G,2 | %18
w: machs mit euch|wie ich wol-|le, kein|trost, kein|trost thut ihr mir|ge- ben ihr|
 A,2 B,2 C3 B, | A,2 G,2 C,4 | C,4 D,4- | D,4 !fermata!G,,4 :| %22
w: krenckt von tag zu|tag mein jun-|ges le-|* ben.|

